Newaita-dark/apps/48/com.github.philip-scott.wallpaperize.svg

<svg height="48" viewBox="0 0 48 48" width="48" xmlns="http://www.w3.org/2000/svg" xmlns:xlink="http://www.w3.org/1999/xlink"><linearGradient id="a" gradientUnits="userSpaceOnUse" x1="23.81478" x2="23.81478" y1="42.0509015" y2="44.03546750005"><stop offset="0" stop-opacity=".27451"/><stop offset="1" stop-opacity="0"/></linearGradient><linearGradient id="b"><stop offset="0" stop-opacity=".313726"/><stop offset=".222222" stop-opacity=".27451"/><stop offset="1" stop-opacity="0"/></linearGradient><radialGradient id="c" cx="450.908936" cy="189.579361" gradientTransform="matrix(.00000026 -.117199 -.210958 -.00000015 80.180537 95.392996)" gradientUnits="userSpaceOnUse" r="21.166656" xlink:href="#b"/><radialGradient id="d" cx="450.908936" cy="189.579361" gradientTransform="matrix(-.00000026 .117199 .210958 .00000015 -32.550992 -11.291221)" gradientUnits="userSpaceOnUse" r="21.166656" xlink:href="#b"/><radialGradient id="e" cx="450.908936" cy="189.579361" gradientTransform="matrix(-.00000026 -.117199 .210958 -.00000015 -32.550992 95.392996)" gradientUnits="userSpaceOnUse" r="21.166656" xlink:href="#b"/><radialGradient id="f" cx="450.908936" cy="189.579361" gradientTransform="matrix(.00000026 .117199 -.210958 .00000015 80.180534 -11.291222)" gradientUnits="userSpaceOnUse" r="21.166656" xlink:href="#b"/><linearGradient id="g" gradientTransform="matrix(.113024 0 0 .326118 -8.78102 50.462022)" gradientUnits="userSpaceOnUse" x1="306.916656" x2="305.954559" y1="-25.791676" y2="-135.329163"><stop offset="0" stop-color="#f48fb1"/><stop offset="1" stop-color="#9fa8da"/></linearGradient><linearGradient id="h" gradientUnits="userSpaceOnUse" x1="24.09181" x2="24.09181" y1="42.36655113008" y2="9.8445016916"><stop offset="0" stop-color="#424242"/><stop offset="1" stop-color="#757575"/></linearGradient><linearGradient id="i" gradientUnits="userSpaceOnUse" x1="31.75302508486" x2="29.76846212192" y1="18.23611708147" y2="12.28242511006"><stop offset="0" stop-color="#ffe0b2"/><stop offset="1" stop-color="#fff3e0"/></linearGradient><linearGradient id="j" gradientUnits="userSpaceOnUse" x1="24.09181" x2="24.09181" y1="42.36655113008" y2="9.8445016916"><stop offset="0" stop-color="#9fa8da"/><stop offset="1" stop-color="#c5cae9"/></linearGradient><linearGradient id="k" gradientUnits="userSpaceOnUse" x1="23.814816" x2="23.814816" y1="42.05096580616" y2="6.32874066504"><stop offset="0" stop-color="#bdbdbd"/><stop offset="1" stop-color="#e0e0e0"/></linearGradient><path d="m6.945312 42.050781h33.738282v1.984375h-33.738282zm0 0" fill="url(#a)"/><path d="m40.683594 42.050781h3.96875v-1.984375h-3.96875zm0 0" fill="url(#c)"/><path d="m6.945312 42.050781h-3.96875v1.984375h3.96875zm0 0" fill="url(#d)"/><path d="m6.945312 42.050781h-3.96875v-1.984375h3.96875zm0 0" fill="url(#e)"/><path d="m40.683594 42.050781h3.96875v1.984375h-3.96875zm0 0" fill="url(#f)"/><path d="m4.960938 6.328125h37.707031c1.097656 0 1.984375.890625 1.984375 1.984375v31.753906c0 1.097656-.886719 1.984375-1.984375 1.984375h-37.707031c-1.09375 0-1.984376-.886719-1.984376-1.984375v-31.753906c0-1.09375.890626-1.984375 1.984376-1.984375zm0 0" fill="url(#g)"/><path d="m14.066406 18.609375c-.324218.003906-.628906.136719-.859375.363281l-10.230469 10.230469v10.863281c0 1.097656.886719 1.984375 1.984376 1.984375h37.707031c1.101562 0 1.984375-.886719 1.984375-1.984375v-10.964844l-7.226563-6.425781c-.515625-.457031-1.304687-.40625-1.757812.109375l-7.882813 9.011719-12.824218-12.824219c-.234376-.234375-.558594-.367187-.894532-.363281zm0 0" fill="url(#h)"/><path d="m4.960938 42.070312c-1.097657 0-1.984376-.886718-1.984376-1.984374v-.515626c0 1.097657.886719 1.984376 1.984376 1.984376h37.707031c1.101562 0 1.984375-.886719 1.984375-1.984376v.515626c0 1.097656-.882813 1.984374-1.984375 1.984374zm0 0" fill-opacity=".235294"/><path d="m4.960938 6.441406c-1.097657 0-1.984376.886719-1.984376 1.988282v.234374c0-1.097656.886719-1.984374 1.984376-1.984374h37.707031c1.101562 0 1.984375.886718 1.984375 1.984374v-.234374c0-1.101563-.882813-1.988282-1.984375-1.988282zm0 0" fill="#fff" fill-opacity=".392157"/><path d="m33.117188 11.980469c-1.199219 0-2.25.628906-2.839844 1.570312.394531-.175781.835937-.277343 1.296875-.277343 1.75 0 3.15625 1.40625 3.15625 3.15625 0 .839843-.324219 1.601562-.859375 2.164062 1.492187-.339844 2.59375-1.667969 2.59375-3.261719 0-1.855469-1.492188-3.351562-3.347656-3.351562zm0 0" fill="url(#i)"/><path d="m4.960938 6.328125c-1.097657 0-1.984376.886719-1.984376 1.984375v12.292969c9.621094-2.769531 20.800782-4.355469 32.746094-4.355469 3.03125 0 6.011719.105469 8.929688.300781v-8.238281c0-1.097656-.882813-1.984375-1.984375-1.984375zm0 0" fill="#fff" fill-opacity=".117647"/><path d="m14.066406 18.609375c-.324218.003906-.628906.136719-.859375.363281l-4.878906 4.878906 1.378906 1.628907c.625.625 2.441407.660156 4.378907-.625 1.238281-1.234375 2.726562-1.121094 3.75 0 1.457031 1.347656 2.773437 1.25 4.257812 1.25l-7.132812-7.132813c-.234376-.234375-.558594-.367187-.894532-.363281zm22.515625 3.753906c-.339843.003907-.675781.148438-.914062.421875l-2.90625 3.320313h.085937c.21875.476562.3125 2.1875 1.25 1.25 1.601563-1.601563 1.878906-.9375 2.503906-.3125.9375.9375 1.5625 1.878906 2.5 1.5625 1.5625-.625 1.835938-2.167969 1.140626-3.421875l-2.816407-2.507813c-.242187-.214843-.542969-.316406-.84375-.3125zm0 0" fill="url(#j)"/><path d="m4.960938 6.328125c-1.097657 0-1.984376.886719-1.984376 1.984375v31.753906c0 1.097656.886719 1.984375 1.984376 1.984375h37.707031c1.101562 0 1.984375-.886719 1.984375-1.984375v-31.753906c0-1.097656-.882813-1.984375-1.984375-1.984375zm.746093 1.984375h36.21875c.410157 0 .742188.332031.742188.746094v30.261718c0 .414063-.332031.746094-.742188.746094h-36.21875c-.414062 0-.746093-.332031-.746093-.746094v-30.261718c0-.414063.332031-.746094.746093-.746094zm0 0" fill="url(#k)"/><path d="m4.960938 6.328125c-1.097657 0-1.984376.886719-1.984376 1.984375v.382812c0-1.101562.886719-1.988281 1.984376-1.988281h37.707031c1.101562 0 1.984375.886719 1.984375 1.988281v-.382812c0-1.097656-.882813-1.984375-1.984375-1.984375zm0 32.992187v.382813c0 .410156.332031.742187.746093.742187h36.21875c.410157 0 .742188-.332031.742188-.742187v-.382813c0 .414063-.332031.746094-.742188.746094h-36.21875c-.414062 0-.746093-.332031-.746093-.746094zm0 0" fill="#fff" fill-opacity=".588235"/><path d="m5.707031 8.328125c-.414062 0-.746093.332031-.746093.742187v.359376c0-.414063.332031-.746094.746093-.746094h36.21875c.410157 0 .742188.332031.742188.746094v-.359376c0-.410156-.332031-.742187-.742188-.742187zm-2.730469 31.378906v.359375c0 1.097656.886719 1.984375 1.984376 1.984375h37.707031c1.101562 0 1.984375-.886719 1.984375-1.984375v-.359375c0 1.101563-.882813 1.984375-1.984375 1.984375h-37.707031c-1.097657 0-1.984376-.882812-1.984376-1.984375zm0 0" fill-opacity=".235294"/><path d="m199.980913 255.093763c-44.247745 0-79.992365 35.74462-79.992365 79.992366v1280.03531c0 44.247745 35.74462 79.992365 79.992365 79.992365h1520.012407c44.40521 0 79.992365-35.74462 79.992365-79.992365v-1280.03531c0-44.247746-35.587155-79.992366-79.992365-79.992366zm30.07587 79.992366h1460.018132c16.533855 0 29.918405 13.384549 29.918405 30.075869v1219.883571c0 16.691321-13.38455 30.07587-29.918405 30.07587h-1460.018132c-16.69132 0-30.07587-13.384549-30.07587-30.07587v-1219.883571c0-16.69132 13.38455-30.075869 30.07587-30.075869zm0 0" fill="none" stroke="#212121" stroke-linecap="round" stroke-width="11.338583" transform="scale(.0248071)"/><path d="m7.9375 10.296875c-.550781 0-.992188.445313-.992188.992187v3.96875c0 .277344.222657.496094.496094.496094.277344 0 .496094-.21875.496094-.496094v-3.472656c0-.273437.222656-.496094.496094-.496094h2.480468c.277344 0 .496094-.21875.496094-.496093 0-.273438-.21875-.496094-.496094-.496094zm4.960938 0c-.273438 0-.496094.222656-.496094.496094 0 .277343.222656.496093.496094.496093h1.984374c.277344 0 .496094-.21875.496094-.496093 0-.273438-.21875-.496094-.496094-.496094zm3.96875 0c-.273438 0-.496094.222656-.496094.496094 0 .277343.222656.496093.496094.496093h1.984374c.277344 0 .496094-.21875.496094-.496093 0-.273438-.21875-.496094-.496094-.496094zm3.972656 0c-.277344 0-.5.222656-.5.496094 0 .277343.222656.496093.5.496093h1.984375c.273437 0 .496093-.21875.496093-.496093 0-.273438-.222656-.496094-.496093-.496094zm3.96875 0c-.277344 0-.496094.222656-.496094.496094 0 .277343.21875.496093.496094.496093h1.984375c.273437 0 .496093-.21875.496093-.496093 0-.273438-.222656-.496094-.496093-.496094zm3.96875 0c-.277344 0-.496094.222656-.496094.496094 0 .277343.21875.496093.496094.496093h1.984375c.273437 0 .496093-.21875.496093-.496093 0-.273438-.222656-.496094-.496093-.496094zm3.96875 0c-.277344 0-.496094.222656-.496094.496094 0 .277343.21875.496093.496094.496093h1.984375c.273437 0 .496093-.21875.496093-.496093 0-.273438-.222656-.496094-.496093-.496094zm3.96875 0c-.273438 0-.496094.222656-.496094.496094 0 .277343.222656.496093.496094.496093h2.480468c.273438 0 .496094.222657.496094.496094v3.472656c0 .277344.222656.496094.496094.496094s.496094-.21875.496094-.496094v-3.96875c0-.546874-.441406-.992187-.992188-.992187zm-29.273438 6.449219c-.273437 0-.496094.222656-.496094.496094v1.984374c0 .277344.222657.496094.496094.496094.277344 0 .496094-.21875.496094-.496094v-1.984374c0-.273438-.21875-.496094-.496094-.496094zm32.746094 0c-.273438 0-.496094.222656-.496094.496094v1.984374c0 .277344.222656.496094.496094.496094s.496094-.21875.496094-.496094v-1.984374c0-.273438-.222656-.496094-.496094-.496094zm-32.746094 3.972656c-.273437 0-.496094.21875-.496094.496094v1.984375c0 .273437.222657.496093.496094.496093.277344 0 .496094-.222656.496094-.496093v-1.984375c0-.277344-.21875-.496094-.496094-.496094zm32.746094 0c-.273438 0-.496094.21875-.496094.496094v1.984375c0 .273437.222656.496093.496094.496093s.496094-.222656.496094-.496093v-1.984375c0-.277344-.222656-.496094-.496094-.496094zm-32.746094 3.96875c-.273437 0-.496094.21875-.496094.496094v1.984375c0 .273437.222657.496093.496094.496093.277344 0 .496094-.222656.496094-.496093v-1.984375c0-.277344-.21875-.496094-.496094-.496094zm32.746094 0c-.273438 0-.496094.21875-.496094.496094v1.984375c0 .273437.222656.496093.496094.496093s.496094-.222656.496094-.496093v-1.984375c0-.277344-.222656-.496094-.496094-.496094zm-32.746094 3.96875c-.273437 0-.496094.21875-.496094.496094v1.984375c0 .273437.222657.496093.496094.496093.277344 0 .496094-.222656.496094-.496093v-1.984375c0-.277344-.21875-.496094-.496094-.496094zm32.746094 0c-.273438 0-.496094.21875-.496094.496094v1.984375c0 .273437.222656.496093.496094.496093s.496094-.222656.496094-.496093v-1.984375c0-.277344-.222656-.496094-.496094-.496094zm-32.746094 3.96875c-.273437 0-.496094.21875-.496094.496094v3.96875c0 .550781.441407.992187.992188.992187h2.976562c.277344 0 .496094-.222656.496094-.496093 0-.273438-.21875-.496094-.496094-.496094h-2.480468c-.273438 0-.496094-.222656-.496094-.496094v-3.472656c0-.277344-.21875-.496094-.496094-.496094zm32.746094 0c-.273438 0-.496094.21875-.496094.496094v3.472656c0 .273438-.222656.496094-.496094.496094h-2.480468c-.273438 0-.496094.222656-.496094.496094 0 .273437.222656.496093.496094.496093h2.976562c.550782 0 .992188-.441406.992188-.992187v-3.96875c0-.277344-.222656-.496094-.496094-.496094zm-27.289062 4.464844c-.273438 0-.496094.222656-.496094.496094 0 .273437.222656.496093.496094.496093h1.984374c.277344 0 .496094-.222656.496094-.496093 0-.273438-.21875-.496094-.496094-.496094h-1.980468zm3.96875 0c-.273438 0-.496094.222656-.496094.496094 0 .273437.222656.496093.496094.496093h1.984374c.277344 0 .496094-.222656.496094-.496093 0-.273438-.21875-.496094-.496094-.496094h-1.980468s0 0-.003906 0zm3.972656 0c-.277344 0-.5.222656-.5.496094 0 .273437.222656.496093.5.496093h1.984375c.273437 0 .496093-.222656.496093-.496093 0-.273438-.222656-.496094-.496093-.496094-.003907 0-.003907 0-.003907 0zm3.96875 0c-.277344 0-.496094.222656-.496094.496094 0 .273437.21875.496093.496094.496093h1.984375c.273437 0 .496093-.222656.496093-.496093 0-.273438-.222656-.496094-.496093-.496094-.003907 0-.003907 0-.003907 0zm3.96875 0c-.277344 0-.496094.222656-.496094.496094 0 .273437.21875.496093.496094.496093h1.984375c.273437 0 .496093-.222656.496093-.496093 0-.273438-.222656-.496094-.496093-.496094h-.003907zm3.96875 0c-.277344 0-.496094.222656-.496094.496094 0 .273437.21875.496093.496094.496093h1.984375c.273437 0 .496093-.222656.496093-.496093 0-.273438-.222656-.496094-.496093-.496094 0 0 0 0-.003907 0zm0 0" fill="#fff" fill-opacity=".529412"/></svg>

<?xml version="1.0" encoding="UTF-8"?>
<svg xmlns="http://www.w3.org/2000/svg" xmlns:xlink="http://www.w3.org/1999/xlink" width="48px" height="48px" viewBox="0 0 48 48" version="1.1">
<defs>
<linearGradient id="linear0" gradientUnits="userSpaceOnUse" x1="254" y1="233.5" x2="254" y2="254.666672" gradientTransform="matrix(0.093759,0,0,0.093759,-0.00000572259,20.158175)">
<stop offset="0" style="stop-color:rgb(0%,0%,0%);stop-opacity:0.27451;"/>
<stop offset="1" style="stop-color:rgb(0%,0%,0%);stop-opacity:0;"/>
</linearGradient>
<radialGradient id="radial0" gradientUnits="userSpaceOnUse" cx="450.908936" cy="189.579361" fx="450.908936" fy="189.579361" r="21.166656" gradientTransform="matrix(0.000000261256,-0.117199,-0.210958,-0.000000152308,80.180537,95.392996)">
<stop offset="0" style="stop-color:rgb(0%,0%,0%);stop-opacity:0.313726;"/>
<stop offset="0.222222" style="stop-color:rgb(0%,0%,0%);stop-opacity:0.27451;"/>
<stop offset="1" style="stop-color:rgb(0%,0%,0%);stop-opacity:0;"/>
</radialGradient>
<radialGradient id="radial1" gradientUnits="userSpaceOnUse" cx="450.908936" cy="189.579361" fx="450.908936" fy="189.579361" r="21.166656" gradientTransform="matrix(-0.000000261256,0.117199,0.210958,0.000000152308,-32.550992,-11.291221)">
<stop offset="0" style="stop-color:rgb(0%,0%,0%);stop-opacity:0.313726;"/>
<stop offset="0.222222" style="stop-color:rgb(0%,0%,0%);stop-opacity:0.27451;"/>
<stop offset="1" style="stop-color:rgb(0%,0%,0%);stop-opacity:0;"/>
</radialGradient>
<radialGradient id="radial2" gradientUnits="userSpaceOnUse" cx="450.908936" cy="189.579361" fx="450.908936" fy="189.579361" r="21.166656" gradientTransform="matrix(-0.000000261256,-0.117199,0.210958,-0.000000152308,-32.550992,95.392996)">
<stop offset="0" style="stop-color:rgb(0%,0%,0%);stop-opacity:0.313726;"/>
<stop offset="0.222222" style="stop-color:rgb(0%,0%,0%);stop-opacity:0.27451;"/>
<stop offset="1" style="stop-color:rgb(0%,0%,0%);stop-opacity:0;"/>
</radialGradient>
<radialGradient id="radial3" gradientUnits="userSpaceOnUse" cx="450.908936" cy="189.579361" fx="450.908936" fy="189.579361" r="21.166656" gradientTransform="matrix(0.000000261256,0.117199,-0.210958,0.000000152308,80.180534,-11.291222)">
<stop offset="0" style="stop-color:rgb(0%,0%,0%);stop-opacity:0.313726;"/>
<stop offset="0.222222" style="stop-color:rgb(0%,0%,0%);stop-opacity:0.27451;"/>
<stop offset="1" style="stop-color:rgb(0%,0%,0%);stop-opacity:0;"/>
</radialGradient>
<linearGradient id="linear1" gradientUnits="userSpaceOnUse" x1="306.916656" y1="-25.791676" x2="305.954559" y2="-135.329163" gradientTransform="matrix(0.113024,0,0,0.326118,-8.78102,50.462022)">
<stop offset="0" style="stop-color:rgb(36.078432%,41.960785%,75.294119%);stop-opacity:1;"/>
<stop offset="1" style="stop-color:rgb(47.450981%,52.549022%,79.607844%);stop-opacity:1;"/>
</linearGradient>
<linearGradient id="linear2" gradientUnits="userSpaceOnUse" x1="960" y1="1295.118164" x2="960" y2="255.118118" gradientTransform="matrix(0.0312712,0,0,0.0312712,-5.928542,1.866652)">
<stop offset="0" style="stop-color:rgb(25.882354%,25.882354%,25.882354%);stop-opacity:1;"/>
<stop offset="1" style="stop-color:rgb(38.039216%,38.039216%,38.039216%);stop-opacity:1;"/>
</linearGradient>
<linearGradient id="linear3" gradientUnits="userSpaceOnUse" x1="306.916656" y1="-25.791676" x2="305.954559" y2="-135.329163" gradientTransform="matrix(0.113024,0,0,0.326118,-8.781019,50.462019)">
<stop offset="0" style="stop-color:rgb(99.215686%,99.215686%,99.215686%);stop-opacity:0.235294;"/>
<stop offset="1" style="stop-color:rgb(100%,100%,100%);stop-opacity:0.196078;"/>
</linearGradient>
<linearGradient id="linear4" gradientUnits="userSpaceOnUse" x1="301.625" y1="-84" x2="301.625" y2="-136.916672" gradientTransform="matrix(0.11819,0,0,0.11819,-4.677697,30.370765)">
<stop offset="0" style="stop-color:rgb(100%,65.490198%,14.901961%);stop-opacity:1;"/>
<stop offset="1" style="stop-color:rgb(100%,71.764708%,30.19608%);stop-opacity:1;"/>
</linearGradient>
<linearGradient id="linear5" gradientUnits="userSpaceOnUse" x1="960" y1="1295.118164" x2="960" y2="255.118118" gradientTransform="matrix(0.0312712,0,0,0.0312712,-5.928542,1.866652)">
<stop offset="0" style="stop-color:rgb(56.470591%,64.313728%,68.235296%);stop-opacity:1;"/>
<stop offset="1" style="stop-color:rgb(69.01961%,74.509805%,77.254903%);stop-opacity:1;"/>
</linearGradient>
</defs>
<g id="surface1">
<path style=" stroke:none;fill-rule:nonzero;fill:url(#linear0);" d="M 6.945312 42.050781 L 40.683594 42.050781 L 40.683594 44.035156 L 6.945312 44.035156 Z M 6.945312 42.050781 "/>
<path style=" stroke:none;fill-rule:nonzero;fill:url(#radial0);" d="M 40.683594 42.050781 L 44.652344 42.050781 L 44.652344 40.066406 L 40.683594 40.066406 Z M 40.683594 42.050781 "/>
<path style=" stroke:none;fill-rule:nonzero;fill:url(#radial1);" d="M 6.945312 42.050781 L 2.976562 42.050781 L 2.976562 44.035156 L 6.945312 44.035156 Z M 6.945312 42.050781 "/>
<path style=" stroke:none;fill-rule:nonzero;fill:url(#radial2);" d="M 6.945312 42.050781 L 2.976562 42.050781 L 2.976562 40.066406 L 6.945312 40.066406 Z M 6.945312 42.050781 "/>
<path style=" stroke:none;fill-rule:nonzero;fill:url(#radial3);" d="M 40.683594 42.050781 L 44.652344 42.050781 L 44.652344 44.035156 L 40.683594 44.035156 Z M 40.683594 42.050781 "/>
<path style=" stroke:none;fill-rule:nonzero;fill:url(#linear1);" d="M 4.960938 6.328125 L 42.667969 6.328125 C 43.765625 6.328125 44.652344 7.21875 44.652344 8.3125 L 44.652344 40.066406 C 44.652344 41.164062 43.765625 42.050781 42.667969 42.050781 L 4.960938 42.050781 C 3.867188 42.050781 2.976562 41.164062 2.976562 40.066406 L 2.976562 8.3125 C 2.976562 7.21875 3.867188 6.328125 4.960938 6.328125 Z M 4.960938 6.328125 "/>
<path style=" stroke:none;fill-rule:nonzero;fill:url(#linear2);" d="M 14.066406 18.609375 C 13.742188 18.613281 13.4375 18.746094 13.207031 18.972656 L 2.976562 29.203125 L 2.976562 40.066406 C 2.976562 41.164062 3.863281 42.050781 4.960938 42.050781 L 42.667969 42.050781 C 43.769531 42.050781 44.652344 41.164062 44.652344 40.066406 L 44.652344 29.101562 L 37.425781 22.675781 C 36.910156 22.21875 36.121094 22.269531 35.667969 22.785156 L 27.785156 31.796875 L 14.960938 18.972656 C 14.726562 18.738281 14.402344 18.605469 14.066406 18.609375 Z M 14.066406 18.609375 "/>
<path style=" stroke:none;fill-rule:nonzero;fill:rgb(0%,0%,0%);fill-opacity:0.235294;" d="M 4.960938 42.070312 C 3.863281 42.070312 2.976562 41.183594 2.976562 40.085938 L 2.976562 39.570312 C 2.976562 40.667969 3.863281 41.554688 4.960938 41.554688 L 42.667969 41.554688 C 43.769531 41.554688 44.652344 40.667969 44.652344 39.570312 L 44.652344 40.085938 C 44.652344 41.183594 43.769531 42.070312 42.667969 42.070312 Z M 4.960938 42.070312 "/>
<path style=" stroke:none;fill-rule:nonzero;fill:url(#linear3);" d="M 4.960938 6.328125 C 3.863281 6.328125 2.976562 7.214844 2.976562 8.3125 L 2.976562 40.066406 C 2.976562 41.164062 3.863281 42.050781 4.960938 42.050781 L 42.667969 42.050781 C 43.769531 42.050781 44.652344 41.164062 44.652344 40.066406 L 44.652344 8.3125 C 44.652344 7.214844 43.769531 6.328125 42.667969 6.328125 Z M 11.90625 12.28125 L 35.722656 12.28125 C 36.820312 12.28125 37.707031 13.167969 37.707031 14.265625 L 37.707031 34.113281 C 37.707031 35.210938 36.820312 36.097656 35.722656 36.097656 L 11.90625 36.097656 C 10.808594 36.097656 9.921875 35.210938 9.921875 34.113281 L 9.921875 14.265625 C 9.921875 13.167969 10.808594 12.28125 11.90625 12.28125 Z M 11.90625 12.28125 "/>
<path style=" stroke:none;fill-rule:nonzero;fill:rgb(100%,100%,100%);fill-opacity:0.392157;" d="M 4.960938 6.441406 C 3.863281 6.441406 2.976562 7.328125 2.976562 8.429688 L 2.976562 8.664062 C 2.976562 7.566406 3.863281 6.679688 4.960938 6.679688 L 42.667969 6.679688 C 43.769531 6.679688 44.652344 7.566406 44.652344 8.664062 L 44.652344 8.429688 C 44.652344 7.328125 43.769531 6.441406 42.667969 6.441406 Z M 4.960938 6.441406 "/>
<path style=" stroke:none;fill-rule:nonzero;fill:rgb(12.941177%,12.941177%,12.941177%);fill-opacity:1;" d="M 4.960938 6.1875 C 3.785156 6.1875 2.835938 7.136719 2.835938 8.3125 L 2.835938 40.066406 C 2.835938 41.242188 3.785156 42.191406 4.960938 42.191406 L 42.667969 42.191406 C 43.84375 42.191406 44.792969 41.242188 44.792969 40.066406 L 44.792969 8.3125 C 44.792969 7.136719 43.84375 6.1875 42.667969 6.1875 Z M 4.960938 6.46875 L 42.667969 6.46875 C 43.691406 6.46875 44.511719 7.289062 44.511719 8.3125 L 44.511719 40.066406 C 44.511719 41.089844 43.691406 41.910156 42.667969 41.910156 L 4.960938 41.910156 C 3.9375 41.910156 3.117188 41.089844 3.117188 40.066406 L 3.117188 8.3125 C 3.117188 7.289062 3.9375 6.46875 4.960938 6.46875 Z M 4.960938 6.46875 "/>
<path style=" stroke:none;fill-rule:nonzero;fill:url(#linear4);" d="M 30.972656 14.1875 C 32.699219 14.1875 34.097656 15.589844 34.097656 17.316406 C 34.097656 19.042969 32.699219 20.441406 30.972656 20.441406 C 29.246094 20.441406 27.84375 19.042969 27.84375 17.316406 C 27.84375 15.589844 29.246094 14.1875 30.972656 14.1875 Z M 30.972656 14.1875 "/>
<path style=" stroke:none;fill-rule:nonzero;fill:url(#linear5);" d="M 14.066406 18.609375 C 13.742188 18.613281 13.4375 18.746094 13.207031 18.972656 L 8.328125 23.851562 L 9.707031 25.480469 C 10.332031 26.105469 12.148438 26.140625 14.085938 24.855469 C 15.324219 23.621094 16.8125 23.734375 17.835938 24.855469 C 19.292969 26.203125 20.609375 26.105469 22.09375 26.105469 L 14.960938 18.972656 C 14.726562 18.738281 14.402344 18.605469 14.066406 18.609375 Z M 36.582031 22.363281 C 36.242188 22.367188 35.90625 22.511719 35.667969 22.785156 L 32.761719 26.105469 L 32.847656 26.105469 C 33.066406 26.582031 33.160156 28.292969 34.097656 27.355469 C 35.699219 25.753906 35.976562 26.417969 36.601562 27.042969 C 37.539062 27.980469 38.164062 28.921875 39.101562 28.605469 C 40.664062 27.980469 40.9375 26.4375 40.242188 25.183594 L 37.425781 22.675781 C 37.183594 22.460938 36.882812 22.359375 36.582031 22.363281 Z M 36.582031 22.363281 "/>
<path style="fill:none;stroke-width:3;stroke-linecap:round;stroke-linejoin:round;stroke:rgb(12.941177%,12.941177%,12.941177%);stroke-opacity:1;stroke-miterlimit:4;" d="M 126.987873 -84.012509 L 381.005282 -84.012509 C 392.670835 -84.012509 402.169928 -74.513416 402.169928 -62.847863 L 402.169928 148.840255 C 402.169928 160.505808 392.670835 170.004901 381.005282 170.004901 L 126.987873 170.004901 C 115.322321 170.004901 105.823228 160.505808 105.823228 148.840255 L 105.823228 -62.847863 C 105.823228 -74.513416 115.322321 -84.012509 126.987873 -84.012509 Z M 126.987873 -84.012509 " transform="matrix(0.093759,0,0,0.093759,0,20.158175)"/>
</g>
</svg>
